X: 4314
T: Bog Carrot, The
R: reel
M: 4/4
K: Emajor
GBeB ceBe|ceBG F2FA|GBeB ceBe|ceBG (3FGF EF|
GBeB ceBe|ceBG F2FA|GBeB ceBe|ceBG (3FGF E2||
g2 gf efga|bgeg (3fgf f2|gagf efgf|ecBG (3FGF E2|
g2 gf efga|bgeg (3fgf f2|gagf efgf|ecBG (3FGF E2||
bgeg bgeg|af=df af=df|bgeg bgeg|af=df e2 eg|
bgeg bgeg|aece afdf|bgeg bgeg|aedf ecBA||

